images/linkedin-icon-black.svg

<svg width="16" height="16" viewBox="0 0 16 16" fill="none" xmlns="http://www.w3.org/2000/svg">
<path fill-rule="evenodd" clip-rule="evenodd" d="M15.0005 15H11.9572V10.0168C11.9572 8.71244 11.4812 7.822 10.4343 7.822C9.63363 7.822 9.18834 8.42289 8.98108 9.00199C8.90336 9.20985 8.9155 9.4994 8.9155 9.78896V15H5.90052C5.90052 15 5.93938 6.17274 5.90052 5.37034H8.9155V6.88164C9.09362 6.22084 10.0571 5.27776 11.5945 5.27776C13.5019 5.27776 15.0005 6.66289 15.0005 9.64554V15ZM2.7413 4.11111H2.72043C1.67669 4.11111 1 3.42567 1 2.55682C1 1.67107 1.69669 1 2.76131 1C3.82505 1 4.47913 1.66938 4.5 2.55429C4.5 3.42313 3.82505 4.11111 2.7413 4.11111ZM1.34948 5.66668H4.14948V15H1.34948V5.66668Z" fill="#151515"/>
</svg>

<svg width="16" height="16" fill="none" xmlns="http://www.w3.org/2000/svg"><path fill-rule="evenodd" clip-rule="evenodd" d="M15 15h-3.043v-4.983c0-1.305-.476-2.195-1.523-2.195-.8 0-1.246.6-1.453 1.18-.078.208-.066.497-.066.787V15H5.902s.038-8.827 0-9.63h3.014v1.512c.179-.661 1.142-1.604 2.68-1.604C13.502 5.278 15 6.663 15 9.646V15ZM2.742 4.111h-.02C1.676 4.111 1 3.426 1 2.557 1 1.67 1.697 1 2.761 1S4.48 1.67 4.5 2.554c0 .87-.675 1.557-1.759 1.557ZM1.35 5.667h2.8V15h-2.8V5.667Z" fill="#151515"/></svg>
